X: 457
T:The Lorgadn (Looregadawn)
M:6/8
L:1/8
C:Junior Crehan
S:Siobhan Kelly, East Durham 2001
R:jig
N:2 settings. comes after Katie's Donkey.
N:Posted to the woodenflute mailing list November 2001
D:Mike and Mary Rafferty, Road from Ballinakill
Z:lesl
K:D
"Mike's setting:"
d|:BAF AFE|DFD EDB|ADF E~E2|FEE Ezd|
BAF AFE|DFD EDB|ADF E~E2|FDA DzA:||
|:DFA dz2|ede fdB|def edB|Adf ezf|
edB BAF|DFD EDB|ADF E~E2|FDA D2A:||
"Siobhan's setting:"
d|:BAF AFE|DFD EDB|ABD E~E2|FEE Ezd|
BAF AFE|DFD EDB|ABD E~E2|FDD DzA:||
|:DFA dz2|ede fdB|def edB|ABD ezf|
edB BAF|DFD EDB|ABD E~E2|FDD D2A:||

